SVG_Azure_Grouped/Management/Azure Arc SQL Managed Instance.svg

<?xml version="1.0" encoding="UTF-8" standalone="no"?>
<!-- Generated by Microsoft Visio, SVG Export Azure Arc SQL Managed Instance.svg Page-1 -->

<svg
   xmlns:dc="http://purl.org/dc/elements/1.1/"
   xmlns:cc="http://creativecommons.org/ns#"
   xmlns:rdf="http://www.w3.org/1999/02/22-rdf-syntax-ns#"
   xmlns:svg="http://www.w3.org/2000/svg"
   xmlns="http://www.w3.org/2000/svg"
   xmlns:sodipodi="http://sodipodi.sourceforge.net/DTD/sodipodi-0.dtd"
   xmlns:inkscape="http://www.inkscape.org/namespaces/inkscape"
   width="0.74544626in"
   height="0.78743267in"
   viewBox="0 0 53.67215 56.695463"
   xml:space="preserve"
   class="st7"
   version="1.1"
   id="svg60"
   sodipodi:docname="Azure Arc SQL Managed Instance.svg"
   style="font-size:12px;overflow:visible;color-interpolation-filters:sRGB;fill:none;fill-rule:evenodd;stroke-linecap:square;stroke-miterlimit:3"
   inkscape:version="0.92.5 (2060ec1f9f, 2020-04-08)"><metadata
   id="metadata64"><rdf:RDF><cc:Work
       rdf:about=""><dc:format>image/svg+xml</dc:format><dc:type
         rdf:resource="http://purl.org/dc/dcmitype/StillImage" /></cc:Work></rdf:RDF></metadata><sodipodi:namedview
   pagecolor="#ffffff"
   bordercolor="#666666"
   borderopacity="1"
   objecttolerance="10"
   gridtolerance="10"
   guidetolerance="10"
   inkscape:pageopacity="0"
   inkscape:pageshadow="2"
   inkscape:window-width="640"
   inkscape:window-height="480"
   id="namedview62"
   showgrid="false"
   inkscape:zoom="1.4193119"
   inkscape:cx="35.783208"
   inkscape:cy="37.786009"
   inkscape:window-x="0"
   inkscape:window-y="0"
   inkscape:window-maximized="0"
   inkscape:current-layer="svg60" />
	<style
   type="text/css"
   id="style2">
	<![CDATA[
		.st1 {fill:#5ea0ef;stroke:none;stroke-linecap:butt;stroke-width:34}
		.st2 {fill:#50e6ff;stroke:none;stroke-linecap:butt;stroke-width:34}
		.st3 {fill:url(#grad0-10);stroke:none;stroke-linecap:butt;stroke-width:34}
		.st4 {fill:#003067;stroke:none;stroke-linecap:butt;stroke-width:34}
		.st5 {fill:url(#grad0-18);stroke:none;stroke-linecap:butt;stroke-width:34}
		.st6 {fill:#f2f2f2;stroke:none;stroke-linecap:butt;stroke-width:34}
		.st7 {fill:none;fill-rule:evenodd;font-size:12px;overflow:visible;stroke-linecap:square;stroke-miterlimit:3}
	]]>
	</style>

	<defs
   id="Patterns_And_Gradients">
		<linearGradient
   id="grad0-10"
   x1="-0.00021805479"
   y1="61.486653"
   x2="33.649612"
   y2="61.486653"
   gradientTransform="scale(0.7628617,1.3108536)"
   gradientUnits="userSpaceOnUse">
			<stop
   offset="0"
   stop-color="#949494"
   stop-opacity="1"
   id="stop4" />
			<stop
   offset="1"
   stop-color="#b3b3b3"
   stop-opacity="1"
   id="stop6" />
		</linearGradient>
		<linearGradient
   id="grad0-18"
   x1="0"
   y1="114.82995"
   x2="32.92706"
   y2="114.82995"
   gradientTransform="scale(1.1847399,0.84406716)"
   gradientUnits="userSpaceOnUse">
			<stop
   offset="0"
   stop-color="#0078d4"
   stop-opacity="1"
   id="stop9" />
			<stop
   offset="1"
   stop-color="#5ea0ef"
   stop-opacity="1"
   id="stop11" />
		</linearGradient>
	</defs>
	<g
   id="g58"
   transform="translate(-34.000259,-33.9987)">
		<title
   id="title15">Page-1</title>
		<g
   id="group12938-1"
   transform="translate(33.907,-34.0157)">
			<title
   id="title17">Azure Arc SQL Managed Instance.12938</title>
			<g
   id="group12939-2">
				<title
   id="title19">Sheet.12939</title>
				<g
   id="shape12940-3"
   transform="translate(0.0746201)">
					<title
   id="title21">Sheet.12940</title>
					<path
   d="m 53.61,115.85 c -0.5,2.21 -3.24,4.39 -8.19,6.09 a 67.5472,68.1646 0 0 1 -37.95,0.05 c -4.56,-1.62 -7.02,-3.69 -7.4,-5.82 -0.07,-0.37 0,-6.2 0,-6.2 l 53.62,-0.51 c 0,0 -0.02,6.12 -0.08,6.39 z"
   class="st1"
   id="path23"
   inkscape:connector-curvature="0"
   style="fill:#5ea0ef;stroke:none;stroke-width:34;stroke-linecap:butt" />
				</g>
				<g
   id="shape12941-5"
   transform="rotate(-0.575,-521.07445,103.45205)">
					<title
   id="title26">Sheet.12941</title>
					<ellipse
   cx="26.8374"
   cy="115.345"
   rx="26.8374"
   ry="9.3633604"
   class="st2"
   id="ellipse28"
   style="fill:#50e6ff;stroke:none;stroke-width:34;stroke-linecap:butt" />
				</g>
				<g
   id="shape12942-7"
   transform="translate(5.53848,-12.5856)">
					<title
   id="title31">Sheet.12942</title>
					<path
   d="m 25.67,123.21 a 1.51461,1.52845 0 0 1 -1.49,1.5 H 1.49 A 1.48957,1.50319 0 0 1 0,123.21 V 82.1 a 1.46454,1.47793 0 0 1 1.44,-1.5 h 22.74 a 1.48957,1.50319 0 0 1 1.49,1.5 z"
   class="st3"
   id="path33"
   inkscape:connector-curvature="0"
   style="fill:url(#grad0-10);stroke:none;stroke-width:34;stroke-linecap:butt" />
				</g>
				<g
   id="shape12943-11"
   transform="translate(9.3031,-38.3925)">
					<title
   id="title36">Sheet.12943</title>
					<path
   d="m 0,121.87 a 2.79452,2.82006 0 0 1 2.77,-2.8 h 12.81 a 2.79452,2.82006 0 0 1 2.87,2.74 v 0.06 a 2.81642,2.84217 0 0 1 -2.79,2.84 H 2.77 A 2.79452,2.82006 0 0 1 0,121.87 Z m 2.77,-5.54 h 12.86 a 2.79452,2.82006 -180 0 0 2.82,-2.8 0.707235,0.7137 -180 0 0 0,-0.0821 2.79452,2.82006 -180 0 0 -2.87,-2.7379 H 2.77 a 2.78513,2.81059 -180 0 0 0,5.62 z"
   class="st4"
   id="path38"
   inkscape:connector-curvature="0"
   style="fill:#003067;stroke:none;stroke-width:34;stroke-linecap:butt" />
				</g>
				<g
   id="shape12944-13"
   transform="translate(10.342,-39.8949)">
					<title
   id="title41">Sheet.12944</title>
					<path
   d="m 1.88,113.13 a 1.87761,1.89478 0 1 1 -1.88,1.9 1.87761,1.89478 0 0 1 1.88,-1.9 z M 0,123.37 a 1.87761,1.89478 -180 1 0 1.88,-1.9 1.87761,1.89478 -180 0 0 -1.88,1.9 z"
   class="st2"
   id="path43"
   inkscape:connector-curvature="0"
   style="fill:#50e6ff;stroke:none;stroke-width:34;stroke-linecap:butt" />
				</g>
				<g
   id="shape12945-15"
   transform="translate(10.9679,-12.4277)">
					<title
   id="title46">Sheet.12945</title>
					<path
   d="M 39.01,115.98 A 8.78098,8.86125 -180 0 0 31.4,107.49 11.0279,11.1287 -180 0 0 20.03,96.93 11.3001,11.4034 -180 0 0 9.21,104.26 10.4583,10.5539 -180 0 0 0,114.42 10.6085,10.7055 -180 0 0 10.98,124.71 H 30.3 a 8.85921,8.9402 -180 0 0 8.71,-8.73 z"
   class="st5"
   id="path48"
   inkscape:connector-curvature="0"
   style="fill:url(#grad0-18);stroke:none;stroke-width:34;stroke-linecap:butt" />
				</g>
				<g
   id="shape12946-19"
   transform="translate(17.1766,-15.3552)">
					<title
   id="title51">Sheet.12946</title>
					<path
   d="m 22.63,119.88 v -8.86 H 20.2 v 10.88 h 6.41 v -2 z M 4.07,115.53 A 5.79557,5.84855 0 0 1 2.74,114.71 1.1516,1.16213 0 0 1 2.43,113.87 0.894996,0.903178 0 0 1 2.824299,113.07735 1.73679,1.75267 0 0 1 3.92,112.76 a 4.34042,4.3801 0 0 1 2.61,0.76 v -2.26 a 7.51046,7.57911 -180 0 0 -2.61,-0.4 4.41239,4.45273 -180 0 0 -2.85,0.87 2.87901,2.90533 -180 0 0 -1.07,2.35 3.49549,3.52745 -180 0 0 2.46,3.16 6.53723,6.59699 0 0 1 1.59,0.94 1.10466,1.11476 0 0 1 0.39,0.85 0.894996,0.903178 0 0 1 -0.394299,0.79265 A 1.97462,1.99268 0 0 1 2.87,120.14 4.24967,4.28851 0 0 1 0.06,119.03 v 2.43 a 5.91136,5.96539 -180 0 0 2.69,0.6 4.97255,5.018 -180 0 0 3,-0.74 2.81642,2.84217 -180 0 0 1.13,-2.4 2.61927,2.64322 -180 0 0 -0.65,-1.84 6.17109,6.2275 -180 0 0 -2.16,-1.55 z m 13.5,4.16 a 6.18674,6.24329 -180 0 0 0.87,-3.33 5.97707,6.03171 -180 0 0 -0.66,-2.95 4.61267,4.65484 -180 0 0 -1.8,-1.95 5.06643,5.11274 -180 0 0 -2.79,-0.68 5.77054,5.82328 -180 0 0 -2.61,0.77 4.88806,4.93274 -180 0 0 -1.91,2.03 6.61546,6.67594 -180 0 0 -0.71,3 5.90823,5.96224 -180 0 0 0.63,2.77 4.9037,4.94853 -180 0 0 1.78,1.96 5.23854,5.28643 -180 0 0 2.61,0.76 l 2.22,2.64 h 3.13 l -3.11,-2.9 a 4.74098,4.78431 -180 0 0 2.35,-2.12 z m -2.43,-0.66 A 2.55981,2.58321 0 0 1 11.2,119 a 3.92421,3.96009 0 0 1 -0.74,-2.64 3.82095,3.85587 0 0 1 0.76,-2.63 2.40648,2.42847 0 0 1 2.01,-0.98 2.25314,2.27373 0 0 1 1.94,0.98 4.03061,4.06746 0 0 1 0.73,2.63 3.84285,3.87798 0 0 1 -0.77,2.68 z"
   class="st6"
   id="path53"
   inkscape:connector-curvature="0"
   style="fill:#f2f2f2;stroke:none;stroke-width:34;stroke-linecap:butt" />
				</g>
			</g>
		</g>
	</g>
</svg>

<?xml version="1.0" encoding="UTF-8" standalone="no"?>
<!DOCTYPE svg PUBLIC "-//W3C//DTD SVG 1.1//EN" "http://www.w3.org/Graphics/SVG/1.1/DTD/svg11.dtd">
<!-- Generated by Microsoft Visio, SVG Export Azure Arc SQL Managed Instance.svg Page-1 -->
<svg xmlns="http://www.w3.org/2000/svg" xmlns:xlink="http://www.w3.org/1999/xlink" xmlns:ev="http://www.w3.org/2001/xml-events"
		width="1.68993in" height="1.73206in" viewBox="0 0 121.675 124.709" xml:space="preserve" color-interpolation-filters="sRGB"
		class="st7">
	<style type="text/css">
	<![CDATA[
		.st1 {fill:#5ea0ef;stroke:none;stroke-linecap:butt;stroke-width:34}
		.st2 {fill:#50e6ff;stroke:none;stroke-linecap:butt;stroke-width:34}
		.st3 {fill:url(#grad0-10);stroke:none;stroke-linecap:butt;stroke-width:34}
		.st4 {fill:#003067;stroke:none;stroke-linecap:butt;stroke-width:34}
		.st5 {fill:url(#grad0-18);stroke:none;stroke-linecap:butt;stroke-width:34}
		.st6 {fill:#f2f2f2;stroke:none;stroke-linecap:butt;stroke-width:34}
		.st7 {fill:none;fill-rule:evenodd;font-size:12px;overflow:visible;stroke-linecap:square;stroke-miterlimit:3}
	]]>
	</style>

	<defs id="Patterns_And_Gradients">
		<linearGradient id="grad0-10" x1="0" y1="0" x2="1" y2="0" gradientTransform="rotate(-90 0.5 0.5)">
			<stop offset="0" stop-color="#949494" stop-opacity="1"/>
			<stop offset="1" stop-color="#b3b3b3" stop-opacity="1"/>
		</linearGradient>
		<linearGradient id="grad0-18" x1="0" y1="0" x2="1" y2="0" gradientTransform="rotate(-90 0.5 0.5)">
			<stop offset="0" stop-color="#0078d4" stop-opacity="1"/>
			<stop offset="1" stop-color="#5ea0ef" stop-opacity="1"/>
		</linearGradient>
	</defs>
	<g>
		<title>Page-1</title>
		<g id="group12645-1" transform="translate(33.907,-34.0157)">
			<title>Azure Arc SQL Managed Instance.12645</title>
			<g id="group12646-2">
				<title>Sheet.12646</title>
				<g id="shape12647-3" transform="translate(0.0746201,2.98428E-13)">
					<title>Sheet.12647</title>
					<path d="M53.61 115.85 C53.11 118.06 50.37 120.24 45.42 121.94 A67.5472 68.1646 0 0 1 7.47 121.99 C2.91 120.37
								 0.45 118.3 0.07 116.17 C0 115.8 0.07 109.97 0.07 109.97 L53.69 109.46 C53.69 109.46 53.67 115.58
								 53.61 115.85 Z" class="st1"/>
				</g>
				<g id="shape12648-5" transform="translate(-1.06443,-5.22402) rotate(-0.575)">
					<title>Sheet.12648</title>
					<ellipse cx="26.8374" cy="115.345" rx="26.8374" ry="9.36336" class="st2"/>
				</g>
				<g id="shape12649-7" transform="translate(5.53848,-12.5856)">
					<title>Sheet.12649</title>
					<path d="M25.67 123.21 A1.51461 1.52845 0 0 1 24.18 124.71 L1.49 124.71 A1.48957 1.50319 0 0 1 0 123.21 L0 82.1
								 A1.46454 1.47793 0 0 1 1.44 80.6 L24.18 80.6 A1.48957 1.50319 0 0 1 25.67 82.1 L25.67 123.21 Z"
							class="st3"/>
				</g>
				<g id="shape12650-11" transform="translate(9.3031,-38.3925)">
					<title>Sheet.12650</title>
					<path d="M0 121.87 A2.79452 2.82006 0 0 1 2.77 119.07 L15.58 119.07 A2.79452 2.82006 0 0 1 18.45 121.81 L18.45
								 121.87 A2.81642 2.84217 0 0 1 15.66 124.71 L2.77 124.71 A2.79452 2.82006 0 0 1 -0 121.87 ZM2.77
								 116.33 L15.63 116.33 A2.79452 2.82006 -180 0 0 18.45 113.53 a0.707235 0.7137 -180 0 0 7.10543E-15
								 -0.0821071 A2.79452 2.82006 -180 0 0 15.58 110.71 L2.77 110.71 A2.78513 2.81059 -180 0 0 2.77 116.33
								 Z" class="st4"/>
				</g>
				<g id="shape12651-13" transform="translate(10.342,-39.8949)">
					<title>Sheet.12651</title>
					<path d="M1.88 113.13 A1.87761 1.89478 0 1 1 -0 115.03 A1.87761 1.89478 0 0 1 1.88 113.13 ZM0 123.37 A1.87761
								 1.89478 -180 1 0 1.88 121.47 A1.87761 1.89478 -180 0 0 0 123.37 Z" class="st2"/>
				</g>
				<g id="shape12652-15" transform="translate(10.9679,-12.4277)">
					<title>Sheet.12652</title>
					<path d="M39.01 115.98 A8.78098 8.86125 -180 0 0 31.4 107.49 A11.0279 11.1287 -180 0 0 20.03 96.93 A11.3001 11.4034
								 -180 0 0 9.21 104.26 A10.4583 10.5539 -180 0 0 0 114.42 A10.6085 10.7055 -180 0 0 10.98 124.71 L30.3
								 124.71 A8.85921 8.9402 -180 0 0 39.01 115.98 Z" class="st5"/>
				</g>
				<g id="shape12653-19" transform="translate(17.1766,-15.3552)">
					<title>Sheet.12653</title>
					<path d="M22.63 119.88 L22.63 111.02 L20.2 111.02 L20.2 121.9 L26.61 121.9 L26.61 119.9 L22.63 119.88 ZM4.07
								 115.53 A5.79557 5.84855 0 0 1 2.74 114.71 A1.1516 1.16213 0 0 1 2.43 113.87 a0.894996 0.903178 0
								 0 1 0.394299 -0.792649 A1.73679 1.75267 0 0 1 3.92 112.76 A4.34042 4.3801 0 0 1 6.53 113.52 L6.53
								 111.26 A7.51046 7.57911 -180 0 0 3.92 110.86 A4.41239 4.45273 -180 0 0 1.07 111.73 A2.87901 2.90533
								 -180 0 0 -0 114.08 A3.49549 3.52745 -180 0 0 2.46 117.24 A6.53723 6.59699 0 0 1 4.05 118.18 A1.10466
								 1.11476 0 0 1 4.44 119.03 a0.894996 0.903178 0 0 1 -0.394299 0.792649 A1.97462 1.99268 0 0 1 2.87
								 120.14 A4.24967 4.28851 0 0 1 0.06 119.03 L0.06 121.46 A5.91136 5.96539 -180 0 0 2.75 122.06 A4.97255
								 5.018 -180 0 0 5.75 121.32 A2.81642 2.84217 -180 0 0 6.88 118.92 A2.61927 2.64322 -180 0 0 6.23
								 117.08 A6.17109 6.2275 -180 0 0 4.07 115.53 ZM17.57 119.69 A6.18674 6.24329 -180 0 0 18.44 116.36
								 A5.97707 6.03171 -180 0 0 17.78 113.41 A4.61267 4.65484 -180 0 0 15.98 111.46 A5.06643 5.11274 -180
								 0 0 13.19 110.78 A5.77054 5.82328 -180 0 0 10.58 111.55 A4.88806 4.93274 -180 0 0 8.67 113.58 A6.61546
								 6.67594 -180 0 0 7.96 116.58 A5.90823 5.96224 -180 0 0 8.59 119.35 A4.9037 4.94853 -180 0 0 10.37
								 121.31 A5.23854 5.28643 -180 0 0 12.98 122.07 L15.2 124.71 L18.33 124.71 L15.22 121.81 A4.74098
								 4.78431 -180 0 0 17.57 119.69 ZM15.14 119.03 A2.55981 2.58321 0 0 1 11.2 119 A3.92421 3.96009 0
								 0 1 10.46 116.36 A3.82095 3.85587 0 0 1 11.22 113.73 A2.40648 2.42847 0 0 1 13.23 112.75 A2.25314
								 2.27373 0 0 1 15.17 113.73 A4.03061 4.06746 0 0 1 15.9 116.36 A3.84285 3.87798 0 0 1 15.13 119.04
								 L15.14 119.03 Z" class="st6"/>
				</g>
			</g>
		</g>
	</g>
</svg>
